X: 409
T:Pour souhaitter
N: Derived from Jos3008-Pour_souhaitter.krn
C: Josquin des Prez
%%abc-version 2.0
%%abcx-abcm2ps-target-version 5.9.1 (29 Sep 2008)
%%abc-creator hum2abc beta
%%abcx-conversion-date 2019/02/12 16:15:55
%%abc-edited-by Jesse Rodin
%%abc-edited-by Will Watson 07/09/2011
%%abcx-initial-encoding-date 2011/09/07/
%%humdrum-veritas 1644041421
%%humdrum-veritas-data 3625250021
%%linebreak <none>
%%barnumbers 0
L: 1/4
M: 2/1
Q: 1/2=120
V: 1 clef=treble
V: 2 clef=treble-8
V: 3 clef=treble-8
V: 4 clef=treble-8
V: 5 clef=treble-8
V: 6 clef=bass
K: C
[V:1] D4F4 | 
[V:2] z8 | 
[V:3] z8 | 
[V:4] z4A4 | 
[V:5] z8 | 
[V:6] z8 | 
[V:1] E4D4 | 
[V:2] z8 | 
[V:3] z8 | 
[V:4] c4B4 | 
[V:5] z8 | 
[V:6] z8 | 
[V:1] z2A2A2A2 | 
[V:2] z8 | 
[V:3] DEFGAGAB | 
[V:4] A4z4 | 
[V:5] z8 | 
[V:6] D,4F,4 | 
[V:1] G3EFGA2- | 
[V:2] z8 | 
[V:3] cdecd4 | 
[V:4] z8 | 
[V:5] z8 | 
[V:6] E,4D,4 | 
[V:1] AGFEDEFD | 
[V:2] z8 | 
[V:3] z2A2A2F2 | 
[V:4] DEFGAGAB | 
[V:5] D4F4 | 
[V:6] z2D,2D,2D,2 | 
[V:1] E4z4 | 
[V:2] z8 | 
[V:3] G4G4 | 
[V:4] cdecd4 | 
[V:5] E4D4 | 
[V:6] C,4B,,4 | 
[V:1] A,B,CDEDEF | 
[V:2] A4c4 | 
[V:3] A8 | 
[V:4] z2e2e2c2 | 
[V:5] z2A2A2A2 | 
[V:6] A,,8 | 
[V:1] GABGA4 | 
[V:2] B4A4 | 
[V:3] z4D4 | 
[V:4] d4d4 | 
[V:5] G4F4 | 
[V:6] z8 | 
[V:1] z2G2c2c2 | 
[V:2] z2e2e2e2 | 
[V:3] G6G2 | 
[V:4] e8 | 
[V:5] E8 | 
[V:6] z2C,2C,2C,2 | 
[V:1] B4A4 | 
[V:2] d4c4 | 
[V:3] G4C3D | 
[V:4] z4z2e2 | 
[V:5] z8 | 
[V:6] G,,4A,,4 | 
[V:1] G8 | 
[V:2] B8 | 
[V:3] E8 | 
[V:4] e2e4dc | 
[V:5] G4G4 | 
[V:6] E,,4z2E,2 | 
[V:1] z4z2E2 | 
[V:2] z8 | 
[V:3] z2B2c2c2 | 
[V:4] B4A4- | 
[V:5] G4A4 | 
[V:6] E,4A,,4 | 
[V:1] F2F2G4 | 
[V:2] d4d4 | 
[V:3] d2A2B2B2 | 
[V:4] A4G3F | 
[V:5] z2D2G2G2 | 
[V:6] D,4z2G,,2 | 
[V:1] z2G2G2G2 | 
[V:2] d4e4 | 
[V:3] A2d3ccB | 
[V:4] D4z2G2 | 
[V:5] F2G2E4 | 
[V:6] D,2G,,2(3C,3D,E,2 | 
[V:1] FEFGAGAB | 
[V:2] z2A2d2d2 | 
[V:3] d4z4 | 
[V:4] A2A2F3G | 
[V:5] D8 | 
[V:6] F,2D,4C,B,, | 
[V:1] c2A3GGF | 
[V:2] c2d2B4 | 
[V:3] z2d2d2d2 | 
[V:4] A2D2z4 | 
[V:5] z2D2G2G2 | 
[V:6] A,,2D,2G,,4 | 
[V:1] A4z2E2 | 
[V:2] A8 | 
[V:3] (3:2:6f3ed2^c2d2^c2 | 
[V:4] z2A2A2A2 | 
[V:5] F4E4 | 
[V:6] D,4A,,4 | 
[V:1] FEFGAGAB | 
[V:2] z2A2d2d2 | 
[V:3] d4f4 | 
[V:4] F3GA2D2 | 
[V:5] D8 | 
[V:6] z2D,2D,2D,2 | 
[V:1] c2A3^GG^F | 
[V:2] c4B4 | 
[V:3] e8 | 
[V:4] E4z4 | 
[V:5] z8 | 
[V:6] A,,4E,4 | 
[V:1] A4z2E2 | 
[V:2] A8 | 
[V:3] c3de4 | 
[V:4] z2A2A2A2 | 
[V:5] A4c4 | 
[V:6] A,,8 | 
[V:1] G4F4 | 
[V:2] z8 | 
[V:3] z4z2A2 | 
[V:4] G4z2A2 | 
[V:5] B4A4 | 
[V:6] z2E,2F,2D,2 | 
[V:1] E4z4 | 
[V:2] e4g4 | 
[V:3] c4B4 | 
[V:4] A2A2G4 | 
[V:5] z8 | 
[V:6] A,,4z2E,2 | 
[V:1] z2A2A2A2 | 
[V:2] f4e4 | 
[V:3] A4z4 | 
[V:4] z2A2c2c2 | 
[V:5] z2A2A2E2 | 
[V:6] F,2D,2A,,4 | 
[V:1] B2c4BA | 
[V:2] z8 | 
[V:3] z8 | 
[V:4] B2e4d2 | 
[V:5] G2A2F4 | 
[V:6] z8 | 
[V:1] G2EFGABG | 
[V:2] z2e2e2B2 | 
[V:3] z2G2G2E2 | 
[V:4] e8 | 
[V:5] E8 | 
[V:6] z2E,2E,2E,2 | 
[V:1] A2c4BA | 
[V:2] d2e2c4 | 
[V:3] F2G2A4 | 
[V:4] z4z2e2 | 
[V:5] z8 | 
[V:6] D,2C,2A,,4 | 
[V:1] G8 | 
[V:2] B8 | 
[V:3] E8 | 
[V:4] e2e4dc | 
[V:5] G4G4 | 
[V:6] E,4z2E,2 | 
[V:1] z4z2E2 | 
[V:2] z8 | 
[V:3] z2B2c2c2 | 
[V:4] B4A4- | 
[V:5] G4A4 | 
[V:6] E,4A,,4 | 
[V:1] F2F2G4 | 
[V:2] d4d4 | 
[V:3] d2A2B2B2 | 
[V:4] A4G3F | 
[V:5] z2D2G2G2 | 
[V:6] D,4z2G,,2 | 
[V:1] z2G2G2G2 | 
[V:2] d4e4 | 
[V:3] A2d4c2 | 
[V:4] D4z2G2 | 
[V:5] F2G2E4 | 
[V:6] D,2G,,2(3C,3D,E,2 | 
[V:1] F4z2D2 | 
[V:2] z2A2d2d2 | 
[V:3] d8 | 
[V:4] A2A2F2A2- | 
[V:5] D4z2D2 | 
[V:6] F,2D,4C,B,, | 
[V:1] E2F2G4 | 
[V:2] c2d2B4 | 
[V:3] z4z2G2 | 
[V:4] AGF2E4 | 
[V:5] A4G4 | 
[V:6] A,,2D,2E,F,G,E, | 
[V:1] z2A2c3B | 
[V:2] A4z2A2 | 
[V:3] c2d2e4 | 
[V:4] z4z2c2 | 
[V:5] A2F2E2A2- | 
[V:6] F,2D,2A,,4 | 
[V:1] A2^G2A4 | 
[V:2] e4d4 | 
[V:3] z4z2A2 | 
[V:4] c2B2A3F | 
[V:5] AGE2F4 | 
[V:6] z8 | 
[V:1] z2A2B2c2- | 
[V:2] e2c2B2e2- | 
[V:3] B2c2G2A2 | 
[V:4] G2A2E4 | 
[V:5] E8 | 
[V:6] z2A,,2E,2A,,2 | 
[V:1] cBG2A4 | 
[V:2] edB2c4 | 
[V:3] E8 | 
[V:4] z4z2e2 | 
[V:5] z8 | 
[V:6] E,4A,,4 | 
[V:1] G8 | 
[V:2] B8 | 
[V:3] z8 | 
[V:4] e2e4dc | 
[V:5] G4G4 | 
[V:6] E,4z2E,2 | 
[V:1] z4z2E2 | 
[V:2] z8 | 
[V:3] z2B2c2c2 | 
[V:4] B4A4- | 
[V:5] G4A4 | 
[V:6] E,4A,,4 | 
[V:1] F2F2G4 | 
[V:2] d4d4 | 
[V:3] d2A2B4 | 
[V:4] A4G3F | 
[V:5] z2D2G2G2 | 
[V:6] D,4z2G,,2 | 
[V:1] z2G2G2G2 | 
[V:2] d4e4 | 
[V:3] A2d4c2 | 
[V:4] D4z2G2 | 
[V:5] F2G2E4 | 
[V:6] D,2G,,2(3C,3D,E,2 | 
[V:1] FEFGAGAB | 
[V:2] z2A2d2d2 | 
[V:3] d3ef2d2 | 
[V:4] F3GA4- | 
[V:5] D8 | 
[V:6] F,2D,4C,B,, | 
[V:1] c2A3GGF | 
[V:2] c2d2B4 | 
[V:3] e2f2d4 | 
[V:4] A2F2G4 | 
[V:5] z8 | 
[V:6] A,,2D,2G,,4 | 
[V:1] A2F2E2A2- | 
[V:2] A8- | 
[V:3] z2d2e2f2- | 
[V:4] z2F2c2F2 | 
[V:5] z2D2C2D2 | 
[V:6] D,,4A,,2D,,2 | 
[V:1] AGE2F4 | 
[V:2] A8 | 
[V:3] fee2d4 | 
[V:4] c4F3G | 
[V:5] C4D4 | 
[V:6] A,,4D,,4 | 
[V:1] E8 |]  
[V:2] A8 |]  
[V:3] c8 |]  
[V:4] A8 |]  
[V:5] A,8 |]  
[V:6] A,,8 |]  



